src/components/Icon/assets/hand-push.svg

<svg width="24" height="24" viewBox="0 0 24 24" fill="none" xmlns="http://www.w3.org/2000/svg">
<path d="M6.43861 2.74174C8.75961 0.420744 12.5386 0.418744 14.8616 2.74174C16.7366 4.61674 17.1056 7.50074 15.8806 9.77574L13.9806 9.05974C14.9556 7.51774 14.7586 5.46774 13.4476 4.15574C11.9036 2.61174 9.39461 2.61274 7.85261 4.15574C6.46261 5.54574 6.30761 7.77274 7.49161 9.33774C7.60061 9.48274 7.72061 9.61974 7.85161 9.75074L6.43961 11.1667C6.24061 10.9697 6.05961 10.7607 5.89561 10.5437C4.11261 8.18874 4.34561 4.83474 6.43861 2.74174Z" fill="#65676A"/>
<path fill-rule="evenodd" clip-rule="evenodd" d="M8.40641 7.11475C8.40641 5.93985 9.31694 4.97777 10.4715 4.89633L10.6304 4.89075C11.8585 4.89075 12.8544 5.88669 12.8544 7.11475L12.854 10.369L18.4969 12.4949C19.8193 12.9898 20.716 14.2194 20.7948 15.617L20.8004 15.8177V16.4157C20.8004 17.3002 20.631 18.1785 20.3022 19.0017C19.3617 21.3551 17.083 22.8977 14.5484 22.8977H13.8624C12.2191 22.8977 10.6421 22.2442 9.48008 21.0822L4.6504 16.2535C3.78275 15.3842 3.78275 13.9783 4.65163 13.1077C5.52096 12.2401 6.92786 12.2401 7.79781 13.1084L8.40601 13.717L8.40641 7.11475ZM11.0544 7.11473C11.0544 6.88079 10.8644 6.69073 10.6304 6.69073C10.3959 6.69073 10.2064 6.88034 10.2064 7.11473V15.6767C10.2064 16.5614 9.13296 17.0003 8.51901 16.3751L6.52563 14.3817C6.35896 14.2154 6.08986 14.2154 5.92442 14.3805C5.75807 14.5472 5.75807 14.8153 5.92374 14.9813L10.7528 19.8093C11.5774 20.6339 12.6966 21.0977 13.8624 21.0977H14.5484C16.3469 21.0977 17.9635 20.0034 18.6306 18.3339C18.8747 17.7229 19.0004 17.0711 19.0004 16.4157V15.8177C19.0004 15.0887 18.548 14.4359 17.8641 14.1799L11.0544 11.6144V7.11473Z" fill="#65676A"/>
</svg>

<svg xmlns="http://www.w3.org/2000/svg" width="24" height="24" viewBox="0 0 24 24">
    <path fill="#65676A" fill-rule="evenodd" d="M10.63 4.89c1.228 0 2.224.997 2.224 2.225v3.254l5.643 2.126c1.322.495 2.219 1.724 2.298 3.122l.005.2v.599c0 .884-.169 1.762-.498 2.586-.94 2.353-3.219 3.896-5.754 3.896h-.686c-1.643 0-3.22-.654-4.382-1.816l-4.83-4.829c-.867-.869-.867-2.275.002-3.145.869-.868 2.276-.868 3.146 0l.608.609V7.115c0-1.175.91-2.137 2.066-2.219zm0 1.8c-.234 0-.424.19-.424.425v8.562c0 .884-1.073 1.323-1.687.698l-1.993-1.993c-.167-.167-.436-.167-.602-.002-.166.167-.166.435 0 .601l4.829 4.828c.824.825 1.944 1.289 3.11 1.289h.685c1.799 0 3.415-1.095 4.083-2.764.244-.611.37-1.263.37-1.918v-.598c0-.73-.453-1.382-1.137-1.638l-6.81-2.566v-4.5c0-.233-.19-.423-.424-.423zM6.44 2.743c2.32-2.321 6.1-2.323 8.423 0 1.875 1.875 2.244 4.759 1.019 7.034l-1.9-.716c.975-1.542.778-3.592-.533-4.904-1.544-1.544-4.053-1.543-5.595 0-1.39 1.39-1.545 3.617-.361 5.182.109.145.229.282.36.413L6.44 11.167c-.2-.197-.38-.406-.544-.623-1.783-2.355-1.55-5.71.543-7.802z"/>
</svg>
